modules/hawcons-stroke/icons/icon-152-paperclip.svg

<?xml version="1.0" encoding="UTF-8" standalone="no"?>
<svg width="32px" height="32px" viewBox="0 0 32 32" version="1.1" xmlns="http://www.w3.org/2000/svg" xmlns:xlink="http://www.w3.org/1999/xlink" xmlns:sketch="http://www.bohemiancoding.com/sketch/ns">
    <!-- Generator: Sketch 3.0.3 (7891) - http://www.bohemiancoding.com/sketch -->
    <title>icon 152 paperclip</title>
    <desc>Created with Sketch.</desc>
    <defs></defs>
    <g id="Page-1" stroke="none" stroke-width="1" fill="none" fill-rule="evenodd" sketch:type="MSPage">
        <g id="icon-152-paperclip" sketch:type="MSArtboardGroup" fill="#929292">
            <path d="M22.0104076,16.1464466 L13.5224412,24.6344131 C11.9618269,26.1950273 9.42719063,26.1906466 7.86827202,24.631728 L7.86827202,24.631728 C6.30617485,23.0696308 6.30247804,20.5406677 7.87272272,18.970423 L19.5318664,7.31127931 C20.5102027,6.33294309 22.0879504,6.32449446 23.0710678,7.30761184 L23.0710678,7.30761184 C24.0473785,8.28392257 24.0481888,9.86602473 23.0763178,10.8378957 L11.3980098,22.5162037 C11.0106866,22.9035269 10.3828393,22.9036546 9.98959236,22.5104076 L9.98959236,22.5104076 C9.59906807,22.1198833 9.59890839,21.4868781 9.98853335,21.0972531 L18.4748737,12.6109127 L17.767767,11.9038059 L9.28662828,20.3849446 C8.50329174,21.1682811 8.49599167,22.4310205 9.28248558,23.2175144 L9.28248558,23.2175144 C10.0635342,23.998563 11.3257936,24.0026335 12.1046583,23.2237688 L23.7795033,11.5489238 C25.1456045,10.1828226 25.1422284,7.96455885 23.7781746,6.60050506 L23.7781746,6.60050506 C22.4113396,5.23367004 20.1974835,5.23144873 18.8266831,6.60224913 L7.16048462,18.2684476 C5.20823905,20.2206931 5.21251697,23.3901865 7.16116524,25.3388348 L7.16116524,25.3388348 C9.11378669,27.2914562 12.280572,27.2904958 14.2383238,25.332744 L22.7175144,16.8535534 L22.0104076,16.1464466 L22.0104076,16.1464466 Z" id="paperclip" sketch:type="MSShapeGroup"></path>
        </g>
    </g>
</svg>

<svg width="32" height="32" xmlns="http://www.w3.org/2000/svg"><path d="M22.01 16.146l-8.488 8.488a4.001 4.001 0 0 1-5.654-.002 3.998 3.998 0 0 1 .005-5.662L19.532 7.311a2.496 2.496 0 0 1 3.54-.003c.975.976.976 2.558.004 3.53L11.398 22.516a.993.993 0 0 1-1.408-.006 1 1 0 0 1-.001-1.413l8.486-8.486-.707-.707-8.481 8.48a1.998 1.998 0 0 0-.005 2.834 1.994 1.994 0 0 0 2.823.006L23.78 11.549a3.502 3.502 0 0 0-.002-4.948 3.499 3.499 0 0 0-4.951.001L7.16 18.268a5.003 5.003 0 0 0 .001 7.07 5.003 5.003 0 0 0 7.077-.005l8.48-8.48-.708-.707z" fill="#929292" fill-rule="evenodd"/></svg>
